icons/user-times.svg

<svg width="24" height="24" viewBox="0 0 24 24" fill="none" xmlns="http://www.w3.org/2000/svg">
<path fill-rule="evenodd" clip-rule="evenodd" d="M17 7C17 8.32608 16.4732 9.59785 15.5355 10.5355C14.5979 11.4732 13.3261 12 12 12C10.6739 12 9.40215 11.4732 8.46447 10.5355C7.52678 9.59785 7 8.32608 7 7C7 5.67392 7.52678 4.40215 8.46447 3.46447C9.40215 2.52678 10.6739 2 12 2C13.3261 2 14.5979 2.52678 15.5355 3.46447C16.4732 4.40215 17 5.67392 17 7ZM15 7C15 6.20435 14.6839 5.44129 14.1213 4.87868C13.5587 4.31607 12.7956 4 12 4C11.2044 4 10.4413 4.31607 9.87868 4.87868C9.31607 5.44129 9 6.20435 9 7C9 7.79565 9.31607 8.55871 9.87868 9.12132C10.4413 9.68393 11.2044 10 12 10C12.7956 10 13.5587 9.68393 14.1213 9.12132C14.6839 8.55871 15 7.79565 15 7ZM2 20C2 16 4.001 14 8.004 14H11.256C11.256 14.748 11.439 15.415 11.806 16H8C5.333 16 4 17.333 4 20H11.555C11.397 20.317 11.318 20.984 11.318 22H4C2.667 22 2 21.333 2 20ZM15.671 14.257L17.914 16.499L20.156 14.257C20.62 13.777 21.091 13.777 21.571 14.257C22.051 14.737 22.051 15.207 21.571 15.671L19.328 17.914L21.571 20.156C22.042 20.628 22.042 21.099 21.571 21.571C21.099 22.042 20.628 22.042 20.156 21.571L17.914 19.328L15.671 21.571C15.211 22.053 14.739 22.053 14.257 21.571C13.775 21.088 13.775 20.617 14.257 20.156L16.499 17.914L14.257 15.671C13.785 15.201 13.785 14.729 14.257 14.257C14.729 13.785 15.2 13.785 15.671 14.257Z" fill="#3A3A47"/>
</svg>

<svg xmlns="http://www.w3.org/2000/svg" width="24" height="24" viewBox="0 0 24 24">
    <path fill="#3A3A47" fill-rule="evenodd" d="M11.256 14c0 .748.183 1.415.55 2H8c-2.667 0-4 1.333-4 4h7.555c-.158.317-.237.984-.237 2H4c-1.333 0-2-.667-2-2 0-4 2.001-6 6.004-6h3.252zm10.315.257c.48.48.48.95 0 1.414l-2.243 2.243 2.243 2.242c.471.472.471.943 0 1.415-.472.471-.943.471-1.415 0l-2.242-2.243-2.243 2.243c-.46.482-.932.482-1.414 0-.482-.483-.482-.954 0-1.415l2.242-2.242-2.242-2.243c-.472-.47-.472-.942 0-1.414s.943-.472 1.414 0l2.243 2.242 2.242-2.242c.464-.48.935-.48 1.415 0zM12 2a5 5 0 1 1 0 10 5 5 0 0 1 0-10zm0 2a3 3 0 1 0 0 6 3 3 0 0 0 0-6z"/>
</svg>
